X:1
T:Title
%%score { 1 | ( 2 3 ) }
L:1/8
Q:1/4=100
M:4/4
K:G
V:1 treble nm="Grand Piano"
V:2 treble 
V:3 treble 
V:1
 [DB]3 A GcB_B | [DB]4 G4 | [CA]3 G FcB_B | [DB]6 z2 | [DB]3 A GcB_B | [DB]4 G4 | [CA]3 G FcBA | %7
w: J.~J.~Lowe * * * * *|||||||
 G6 z2 | [FA]3 [FB] [Fc][Fe][Gd][Fc] | B4 d4 | ^c3 B AG[^CF][CE] | D4 c4 | B3 c dBAG | %13
w: ||||||
[M:9/8] [EG]3- [EG] [Ec]2- [Ec][EG][^DA] |[M:4/4] [DB]3 [DG] [GB]2 [FA]2 | [DG]6 z2 |] %16
w: |||
V:2
 z2 z C B,ED^C | z4 B,4 | z2 z B, A,[K:treble]ED^C | G,6 z2 | z2 z C B,ED^C | z4 B,4 | %6
 z2 z B, A,EDC | [G,B,]6 z2 | [D,D]3 [D,D] [D,A,][D,C][D,B,][D,D] | [G,DG]4 [G,B,G]4 | %10
 [A,EG]3 [A,DG] [A,^CG][K:bass][E,A,C][A,,A,][A,,G,] | D,4- [D,DF]4 | %12
 [G,DG]3 [A,DF] [B,DG][G,DG][G,CF][G,B,=F] | %13
[M:9/8][K:bass] [C,C]3- [C,C] [C,G,]2- [C,G,][C,C][C,C] |[M:4/4] [D,G,]3 [D,B,] [D,D]2 [D,C]2 | %15
 [G,B,]6 z2 |] %16
V:3
 G,8 | G,8 | D,8[K:treble] | x8 | G,8 | G,8 | D,8 | x8 | x8 | x8 | x5[K:bass] x3 | F,4 z4 | x8 | %13
[M:9/8][K:bass] x9 |[M:4/4] x8 | x8 |] %16

